X: 252
T: Munster Bacon
R: jig
M: 6/8
L: 1/8
K: Dmaj
ABA DFA|dfe d2c|~B3 dAF|GFG EFG|
AFA dcd|BAB efg|f/g/af ede|1 fdc dcB:|2 fdc dfg||
|:afd dfa|bge a2g|~f3 ged|cec A2G|
Fdd cee|dff efg|f/g/af ede|1 fdc dfg:|2 fdc dcB||

